src/status/24/notification-new-80-symbolic.svg

<?xml version="1.0" encoding="UTF-8" standalone="no"?>
<svg
   xmlns:dc="http://purl.org/dc/elements/1.1/"
   xmlns:cc="http://creativecommons.org/ns#"
   xmlns:rdf="http://www.w3.org/1999/02/22-rdf-syntax-ns#"
   xmlns:svg="http://www.w3.org/2000/svg"
   xmlns="http://www.w3.org/2000/svg"
   height="24"
   width="24"
   version="1.1"
   id="svg8">
  <metadata
     id="metadata14">
    <rdf:RDF>
      <cc:Work
         rdf:about="">
        <dc:format>image/svg+xml</dc:format>
        <dc:type
           rdf:resource="http://purl.org/dc/dcmitype/StillImage" />
        <dc:title />
      </cc:Work>
    </rdf:RDF>
  </metadata>
  <defs
     id="defs12" />
  <path
     id="path2-3-7-9-8-3-7-2-0"
     d="M 13.992188 5.0039062 C 13.602498 5.0068063 13.232731 5.2403631 13.074219 5.6230469 L 13.070312 5.6308594 C 11.266046 5.3770962 9.4725375 6.4873788 8.7734375 8.1699219 C 8.7734375 8.1699219 6.8591806 12.790042 5.0878906 12.728516 C 5.0688906 12.732516 5.0554563 12.747373 5.0351562 12.751953 C 4.9580563 12.773473 4.8843294 12.808163 4.8183594 12.853516 C 4.7913594 12.871576 4.7638444 12.881834 4.7402344 12.902344 C 4.6503344 12.976574 4.5795531 13.070765 4.5332031 13.177734 C 4.3740131 13.562068 4.5560531 13.99939 4.9394531 14.158203 L 14.640625 18.175781 C 15.024965 18.334978 15.459941 18.155821 15.619141 17.771484 C 15.662041 17.663073 15.678969 17.545738 15.667969 17.429688 C 15.665969 17.398457 15.654238 17.370374 15.648438 17.339844 C 15.633638 17.260934 15.606106 17.185025 15.566406 17.115234 C 15.556206 17.098024 15.558405 17.077207 15.546875 17.060547 C 14.250495 15.852487 16.164062 11.230469 16.164062 11.230469 C 16.33493 10.816674 16.431253 10.381963 16.462891 9.9433594 A 2 2 0 0 1 14 8 A 2 2 0 0 1 14.939453 6.3046875 C 15.094854 5.8150657 14.864223 5.2822552 14.380859 5.0820312 C 14.253297 5.0291942 14.122083 5.0029393 13.992188 5.0039062 z M 8.625 16.755859 C 8.513862 17.703292 9.0895582 18.621549 10.035156 18.902344 C 10.841331 19.141166 11.678039 18.845844 12.169922 18.224609 L 8.625 16.755859 z "
     style="color:#bebebe;overflow:visible;isolation:auto;mix-blend-mode:normal;fill:#363636;marker:none" />
  <path
     id="path4-7-9-6-2"
     style="color:#bebebe;overflow:visible;isolation:auto;mix-blend-mode:normal;fill:#d33636;stroke-width:1;marker:none"
     overflow="visible"
     d="m 17,8 a 1,1 0 0 1 -2,0 1,1 0 1 1 2,0 z"
     class="error" />
</svg>

<svg xmlns="http://www.w3.org/2000/svg" width="24" height="24">
    <path d="M13.992 5.004c-.39.003-.76.236-.918.619l-.004.008c-1.804-.254-3.597.856-4.297 2.539 0 0-1.914 4.62-3.685 4.559-.02.004-.033.018-.053.023a.731.731 0 0 0-.217.102c-.027.018-.054.028-.078.048a.736.736 0 0 0-.207.276.75.75 0 0 0 .406.98l9.702 4.018c.384.159.819-.02.978-.405a.74.74 0 0 0 .049-.341c-.002-.032-.014-.06-.02-.09a.724.724 0 0 0-.082-.225c-.01-.017-.008-.038-.02-.054-1.296-1.209.618-5.83.618-5.83.17-.414.267-.849.299-1.288A2 2 0 0 1 14 8a2 2 0 0 1 .94-1.695.99.99 0 0 0-.948-1.301zM8.625 16.756a1.994 1.994 0 0 0 1.41 2.146 2 2 0 0 0 2.135-.677l-3.545-1.47z" style="color:#bebebe;overflow:visible;isolation:auto;mix-blend-mode:normal;fill:#050505;opacity:.7;marker:none"/>
    <path d="M17 8a1 1 0 0 1-2 0 1 1 0 1 1 2 0z" class="error" overflow="visible" style="color:#bebebe;overflow:visible;isolation:auto;mix-blend-mode:normal;fill:#d98c8c;stroke-width:1;marker:none"/>
</svg>
